packages/icons/svg/32/NotificationOff.svg

<svg width="32" height="32" viewBox="0 0 32 32" fill="none" xmlns="http://www.w3.org/2000/svg">
<path fill-rule="evenodd" clip-rule="evenodd" d="M16 4C11.5817 4 8.00001 7.58172 8.00001 12V15.8599L6.03848 22.7253C5.95228 23.027 6.0127 23.3517 6.20166 23.6022C6.39062 23.8527 6.68622 24 7.00001 24H25C25.3138 24 25.6094 23.8527 25.7984 23.6022C25.9873 23.3517 26.0477 23.027 25.9615 22.7253L24 15.8599V12C24 7.58172 20.4183 4 16 4ZM10 12C10 8.68629 12.6863 6 16 6C19.3137 6 22 8.68629 22 12V16C22 16.0929 22.013 16.1854 22.0385 16.2747L23.6743 22H8.32574L9.96153 16.2747C9.98706 16.1854 10 16.0929 10 16V12Z" fill="#858585"/>
<path d="M12.2275 25.333C12.7767 26.8866 14.2583 27.9997 15.9999 27.9997C17.7416 27.9997 19.2232 26.8866 19.7723 25.333H12.2275Z" fill="#858585"/>
</svg>

<svg width="32" height="32" fill="none" xmlns="http://www.w3.org/2000/svg" viewBox="0 0 32 32"><path fill-rule="evenodd" clip-rule="evenodd" d="M16 4a8 8 0 00-8 8v3.86l-1.962 6.865A1 1 0 007 24h18a1 1 0 00.962-1.275L24 15.86V12a8 8 0 00-8-8zm-6 8a6 6 0 0112 0v4a1 1 0 00.038.275L23.674 22H8.326l1.636-5.725A1 1 0 0010 16v-4z" fill="currentColor"></path><path d="M12.227 25.333a4.002 4.002 0 007.545 0h-7.544z" fill="currentColor"></path></svg>
